X:068
U: ~ = !turn!
%%topmargin 3cm
T:Farrell O'Gara Schottische
B:Traditional Irish Fiddle Tunes. Randy Miller and Jack Perron.
Z:Transcribed by Ralph Palmer
S:Michael Coleman
R:Schottische
L:1/8
M:C|
K:A
AF | D2 Ac PB2 ((3agf) | ((3edc) ((3dcB) cAFA | E2 Ac PB2 af | ecBd cAFA |
[E2A2] Ac PB2 ((3agf) | ((3edc) ((3dcB) cAFA | [E2A2] Ac PB2 af | ecBc A2 ::
e2 | aefa dace | dBcA BF F2 | aefa eac'a | babc' | a2 ab |
c'afa Pe2 ce | dBcA BAFA | [E2A2] Ac PB2 af | ecBc A2 :|]
